X: 172
T: Nande jinri you xiangfeng
%%abc-version 2.0
%%abcx-abcm2ps-target-version 5.9.1 (29 Sep 2008)
%%abc-creator hum2abc beta
%%abcx-conversion-date 2013/10/02 07:44:27
%%abc-edited-by Helmut Schaffrath
%%humdrum-veritas 3646006549
%%humdrum-veritas-data 239682046
%%continueall 1
%%barnumbers 0
L: 1/8
M: 3/4
K: G
d B/ d/ B B [I:setbarnb 1]| 
d B/ d/ B B | 
d B2<d2B | 
[M:2/4]d Bd2- | 
d4 | 
B d e B | 
B d d B/ B/ | 
d Bd2 | 
[M:3/4]d B2<d2B | 
[M:2/4]d B d B | 
d4 | 
A Bd2- | 
d4 | 
B Bd2- | 
d4 | 
d B e e | 
d4 | 
d B e e | 
d4 |]  



